X:131
T: STETS IN TRAUERN MUSS ICH LEBEN
N: E0722A
O: Europa, Mitteleuropa, Deutschland; Frankreich, Elsass
R: Liebes - Lied, Leid, Klage, Abschied
M: 3/4
L: 1/8
K: G
DF | G2D2EF | G2D2
GB | A3GFA | D2z2
DD | cBAGGE | EGDz
DD | GBd2cA | A2G2
DD | cBAGGE | EGDz
DD | GBd2cA | A2G2

@@@ Tune index: 4444
